icons/lines/receipt-two.svg

<svg xmlns="http://www.w3.org/2000/svg" width="24" height="24" viewBox="0 0 24 24" fill="none" stroke="currentColor" stroke-width="2" stroke-linecap="round" stroke-linejoin="round" >
  <path d="M20 7.04V16.96C20 18.48 19.86 19.56 19.5 20.33C19.5 20.34 19.49 20.36 19.48 20.37C19.26 20.65 18.97 20.79 18.63 20.79C18.1 20.79 17.46 20.44 16.77 19.7C15.95 18.82 14.69 18.89 13.97 19.85L12.96 21.19C12.56 21.73 12.03 22 11.5 22C10.97 22 10.44 21.73 10.04 21.19L9.02002 19.84C8.31002 18.89 7.05999 18.82 6.23999 19.69L6.22998 19.7C5.09998 20.91 4.10002 21.09 3.52002 20.37C3.51002 20.36 3.5 20.34 3.5 20.33C3.14 19.56 3 18.48 3 16.96V7.04C3 5.52 3.14 4.44 3.5 3.67C3.5 3.66 3.50002 3.65 3.52002 3.64C4.09002 2.91 5.09998 3.09 6.22998 4.3L6.23999 4.31C7.05999 5.18 8.31002 5.11 9.02002 4.16L10.04 2.81C10.44 2.27 10.97 2 11.5 2C12.03 2 12.56 2.27 12.96 2.81L13.97 4.15C14.69 5.11 15.95 5.18 16.77 4.3C17.46 3.56 18.1 3.21 18.63 3.21C18.97 3.21 19.26 3.36 19.48 3.64C19.5 3.65 19.5 3.66 19.5 3.67C19.86 4.44 20 5.52 20 7.04Z"/>
  <path d="M8 10.25H16"/>
  <path d="M8 13.75H14"/>
  </svg>

<svg xmlns="http://www.w3.org/2000/svg" width="24" height="24" viewBox="0 0 24 24" fill="none" stroke="currentColor" stroke-width="2" stroke-linecap="round" stroke-linejoin="round">
  <path d="M20 16.96c0 1.52-.14 2.6-.5 3.37a1 1 0 0 1-.87.46c-.53 0-1.17-.35-1.86-1.09-.82-.88-2.08-.81-2.8.15l-1.01 1.34c-.4.54-.93.81-1.46.81s-1.06-.27-1.46-.81l-1.02-1.35c-.71-.95-1.96-1.02-2.78-.15-1.14 1.22-2.14 1.4-2.72.68-.38-.81-.52-1.89-.52-3.41V7.04c0-1.52.14-2.6.5-3.37.59-.76 1.6-.58 2.73.63.83.88 2.08.81 2.79-.14l1.02-1.35c.4-.54.93-.81 1.46-.81s1.06.27 1.46.81l1.01 1.34c.72.96 1.98 1.03 2.8.15.69-.74 1.33-1.09 1.86-1.09a1 1 0 0 1 .85.43c.38.8.52 1.88.52 3.4z" />
  <path d="M8 10.25h8" />
  <path d="M8 13.75h6" />
</svg>
